flags/pg.svg

<svg width="512" height="512" viewBox="0 0 512 512" fill="none" xmlns="http://www.w3.org/2000/svg">
<path d="M-2.23802e-05 -0.000305176L512 -0.000327556L512 512L-6.8299e-10 511.984L-2.23802e-05 -0.000305176Z" fill="var(--flag-palette-dark-red, #a2001d)"/>
<path d="M512 512L6.71407e-05 512L0 6.71407e-05L512 512Z" fill="var(--flag-palette-black, #333333)"/>
<path d="M179.642 361.044L183.786 373.799H197.197L186.347 381.681L190.492 394.436L179.642 386.553L168.792 394.436L172.936 381.681L162.087 373.799H175.497L179.642 361.044Z" fill="var(--flag-palette-white, #eeeeee)"/>
<path d="M145.391 238.609L152.3 259.867H174.65L156.567 273.004L163.474 294.262L145.391 281.123L127.309 294.262L134.217 273.004L116.133 259.867H138.485L145.391 238.609Z" fill="var(--flag-palette-white, #eeeeee)"/>
<path d="M145.391 394.437L152.298 415.695H174.65L156.565 428.831L163.474 450.089L145.391 436.95L127.309 450.089L134.215 428.831L116.133 415.695H138.482L145.391 394.437Z" fill="var(--flag-palette-white, #eeeeee)"/>
<path d="M210.741 294.263L217.65 315.521H240L221.917 328.657L228.824 349.915L210.741 336.776L192.659 349.915L199.567 328.657L181.484 315.521H203.835L210.741 294.263Z" fill="var(--flag-palette-white, #eeeeee)"/>
<path d="M80.0402 294.263L86.9492 315.521H109.298L91.2162 328.657L98.1222 349.915L80.0402 336.776L61.9572 349.915L68.8662 328.657L50.7822 315.521H73.1332L80.0402 294.263Z" fill="var(--flag-palette-white, #eeeeee)"/>
<path d="M444.549 173.561C433.108 162.12 418.242 155.361 402.267 154.2L450.087 117.007C431.042 97.962 405.516 89.361 380.608 91.18C377.626 80.464 371.941 70.342 363.514 61.915L344.625 99.693C343.386 97.435 341.817 95.31 339.903 93.397C329.035 82.53 311.417 82.53 300.551 93.397C289.685 104.264 289.683 121.882 300.551 132.749C302.464 134.662 304.59 136.231 306.848 137.471L269.07 156.36C277.499 164.79 287.628 170.479 298.35 173.459C296.525 198.367 305.117 223.889 324.163 242.935L365.943 189.217C369.086 186.122 373.237 184.413 377.653 184.413C382.113 184.413 386.305 186.149 389.458 189.304C392.612 192.457 394.349 196.65 394.349 201.109C394.349 205.569 392.612 209.761 389.458 212.915L405.2 228.657C412.557 221.299 416.61 211.516 416.61 201.11C416.61 192.596 413.894 184.502 408.88 177.81C416.186 179.761 423.091 183.583 428.811 189.304C446.171 206.663 446.171 234.909 428.811 252.267L444.553 268.009C457.166 255.395 464.113 238.625 464.113 220.786C464.11 202.945 457.162 186.175 444.549 173.561Z" fill="var(--flag-palette-yellow, #ffda44)"/>
</svg>

<svg xmlns="http://www.w3.org/2000/svg" width="512" height="512" fill="none"><path fill="var(--flag-palette-dark-red, #a2001d)" d="M0 0h512v512H0z"/><path fill="#333" d="M512 512H0V0z"/><path fill="#EEE" d="m179.6 361 4.2 12.8h13.4l-10.9 7.9 4.2 12.7-10.9-7.8-10.8 7.8 4.1-12.7-10.8-7.9h13.4zm-34.2-122.4 6.9 21.3h22.3l-18 13.1 6.9 21.3-18.1-13.2-18 13.2 6.8-21.3-18-13.1h22.3zm0 155.8 6.9 21.3h22.3l-18 13.1 6.9 21.3-18.1-13.2-18 13.2 6.8-21.3-18-13.1h22.3zm65.3-100.1 7 21.2H240l-18 13.2 6.8 21.2-18-13.1-18.1 13.1 6.9-21.2-18.1-13.2h22.3zm-130.7 0 7 21.2h22.3l-18 13.2 6.8 21.2-18-13.1L62 349.9l6.9-21.2-18.1-13.2H73z"/><path fill="var(--flag-palette-yellow, #ffda44)" d="M444.5 173.6a66 66 0 0 0-42.2-19.4L450 117a89 89 0 0 0-69.5-25.8 67 67 0 0 0-17-29.3l-19 37.8a27.8 27.8 0 1 0-37.8 37.8L269 156.4a66 66 0 0 0 29.3 17 89 89 0 0 0 25.8 69.5l41.7-53.7a16.6 16.6 0 0 1 23.6.1 16.6 16.6 0 0 1 0 23.6l15.7 15.8a39 39 0 0 0 3.7-50.9q11.1 3 20 11.5a44.6 44.6 0 0 1 0 63l15.7 15.7a66.4 66.4 0 0 0 0-94.4"/></svg>
